!!!COM: Mozart, Wolfgang Amadeus
!!!CDT: 1756///-1791///
!!!OTP: Viennese Sonatina No. 1 in C-major
!!!OTL: Sonatina in C-major
!!!OMV: No. 1
!!!GNM: No. 1
!!!OMD: Allegro
!!!ENC: Craig Stuart Sapp
!!!AIN: piano
!!!EEV: 19 Feb 2001
!!!YEC: Copyright 2001 by Craig Stuart Sapp
!!!YEN: United States of America
**kern	**kern
*k[]	*k[]
*C:	*C:
*M4/4	*M4/4
*MM152	*MM152
*>[A,A,B,B]	*>[A,A,B,B]
*>A	*>A
2CC 2C	2c 2cc
2EE 2E	2e 2ee
=2	=2
2GG 2G	2g 2gg
4r	4r
8G'	8gg'
8G'	8gg'
=3	=3
4A'	4aa'
8F'	8ff'
8F'	8ff'
4D'	4dd'
8G'	8gg'
8G'	8gg'
=4	=4
4E'	4ee'
4C'	4cc'
2r	2r
=5	=5
*	*^
4r	1cc	2cc
4e	.	.
4f	.	2dd
4f#	.	.
=6	=6	=6
4g	2b	2ff
4g#	.	.
4a	2cc	2ee
4e	.	.
*	*v	*v
=7	=7
4fn	4a' 4dd'
4r	4dd'
4d' 4f'	8cc
.	8b
4r	8a
.	8g
=8	=8
4c' 4e'	4cc'
4G' 4d'	4b' 4dd'
4c'	4cc' 4ee'
4r	4r
=9	=9
*	*^
4e	2cc	4r
4c	.	2ccc^
4f	2dd	.
4d	.	8bb
.	.	8aa
=10	=10	=10
4B	4ff	8aa
.	.	8gg
4G	4ff	2gg
2c	2ee	.
.	.	4gg#
*	*v	*v
=11	=11
8f'	8ee 8gg#
8r	8ff 8aa
8F'	8ccc
8r	8ff 8aa
8G'	8ee 8ggn
8r	8cc 8ee
8GG'	8b 8ff
8r	8dd
=12	=12
8C 8E	4cc
8G	.
8C 8E	4r
8G	.
8C 8F	8r
8G	8gg
8C 8F	8bb
8G	8gg
=13	=13
8C 8E	4ccc
8G	.
8C 8E	4r
8G	.
8C 8F	8r
8G	8gg
8C 8F	8bb
8G	8gg
=14	=14
4C 4E	8ccc
.	8ccc'
8G'	8gg'
8G'	8gg'
8E'	8ee'
8E'	8ee'
8C'	8cc'
8C'	8cc'
=15	=15
8G'	8gg'
8GG'	8g'
8GG'	8g'
8GG'	8g'
4GG	4g
4r	4r
=16	=16
8G	4r
8B	.
8d	2dd
8B	.
8G	.
8B	.
8d	4gg
8B	.
=17	=17
8A	4gg
8c	.
8d	4ff#
8c	.
8D	8r
8A	8ccc
8c	8aa
8A	8ff#
=18	=18
8G	4gg'
8B	.
8d	2dd
8B	.
8G	.
8B	.
8d	4gg
8B	.
=19	=19
8A	4gg
8c	.
8d	4ff#
8c	.
8D	8r
8A	8ccc
8c	8aa
8A	8ff#
=20	=20
4G 4B	4gg'
4d 4fn	4gg'
4c 4e	4gg'
4B 4d#	4gg'
=21	=21
4B 4d#	2gg
4c 4e	.
2r	8r
.	8ee
.	8ccc
.	8aa
=22	=22
8D	4aa'
8B	.
8D	2gg
8B	.
8D	.
8B	.
8D	4ff#
8A	.
=23	=23
4E 4G	4gg'
4D 4G	4ffn
4C 4G	4ee
4BB 4G	4dd#
=24	=24
8C' 8G'	8ee'
8r	8r
2A	2ff# 2ccc
8G	8gg 8bb
8r	8r
=25	=25
8C	8ee' 8aa'
8r	8r
2D	2b 2gg
4d	4a 4ff#
=26	=26
8G 8B	4b' 4gg'
8d	.
8G 8B	4.dd
8d	.
8G 8c	.
8d	8ccc
8G 8c	8aa
8d	8ff#
=27	=27
8G 8B	4gg'
8d	.
8G 8B	4.dd
8d	.
8G 8c	.
8d	8ccc
8G 8c	8aa
8d	8ff#
=28	=28
4G' 4B'	4gg'
4GG 4G	4dd 4bb
4GG 4G	4b 4gg
4r	4r
=:|!|:29	=:|!|:29
*>B	*>B
2GG 2G	2g 2gg
2EE 2E	2e 2ee
=30	=30
2CC# 2C#	2c# 2cc#
4r	4r
8A'	8aa'
8A'	8aa'
=31	=31
4B-'	4bb-'
8G'	8gg'
8G'	8gg'
4E'	4ee'
8A'	8aa'
8A'	8aa'
=32	=32
4F'	4ff'
4D'	4dd'
2r	2r
=33	=33
*	*^
2a	1cc	2ff
2b-	.	2ee
=34	=34	=34
4g	2cc	2bb-
4e	.	.
4c	2r	8ccc
.	.	8bb-
4b-	.	8aa
.	.	8gg
=35	=35	=35
2a	1cc	2ff
2b-	.	2ee
=36	=36	=36
4g	2cc	2bb-
4e	.	.
4c	2r	8ccc
.	.	8bb-
4b-	.	8aa
.	.	8gg
=37	=37	=37
2a	1cc	2ff
2g	.	2ee
*	*v	*v
=38	=38
4f'	4cc' 4aa'
4f'	4cc' 4aa'
4r	4r
4e'	4cc' 4gg'
=39	=39
4r	4r
4d'	4bn' 4ff'
4r	4r
4c'	4cc' 4ee'
=40	=40
8B	4dd
8G	.
8B	4r
8G	.
8f	8r
8G	8gg
8f	8bb
8G	8gg
=41	=41
8e	4ccc
8G	.
8e	4r
8G	.
8c	8r
8G	8cc
8c	8ee
8G	8cc
=42	=42
8B	4dd
8G	.
8B	4r
8G	.
8f	8r
8G	8gg
8f	8bb
8G	8gg
=43	=43
4c 4e	8ccc'
.	8ccc'
8G'	8gg'
8G'	8gg'
8E'	8ee'
8E'	8ee'
8C'	8cc'
8C'	8cc'
=44	=44
8G'	8gg'
8GG'	8g'
8GG'	8g'
8GG'	8g'
4GG	4g
4r	4r
=45	=45
8C	4r
8E	.
8G	2g
8E	.
8C	.
8E	.
8G	4cc
8E	.
=46	=46
8D	4cc
8F	.
8G	4b
8F	.
8GG	8r
8D	8ff
8G	8dd
8D	8b
=47	=47
8C	4cc'
8E	.
8G	2gg
8E	.
8C	.
8E	.
8G	4ccc
8E	.
=48	=48
8D	4ccc
8F	.
8G	4bb
8F	.
8BB	8r
8F	8gg
8G	8ff
8F	8dd
=49	=49
4C 4E	4cc'
4g 4b-	4cc'
4f 4a	4cc'
4e 4g#	4cc'
=50	=50
4e 4g#	2cc
4f 4a	.
2r	8r
.	8aa
.	8ff
.	8dd
=51	=51
8G	4dd'
8e	.
8G	2cc
8e	.
8G	.
8e	.
8G	4b
8d	.
=52	=52
4A 4c	4cc
4G 4c	4bb-
4F 4c	4aa
4E 4c	4gg#
=53	=53
8F' 8c'	8aa
8r	8r
2d	2ff 2bbn
8e	8gg 8ccc
8r	8r
=54	=54
8F'	8cc' 8aa'
8r	8r
2G	2cc 2ee
4GG	4b 4dd
=55	=55
4C	2cc
4r	.
2r	2ee
=56	=56
2G	2gg
2B	4r
.	8gg'
.	8gg'
=57	=57
2c	4ee'
.	8gg'
.	8gg'
2e	4cc'
.	8cc' 8ee'
.	8cc' 8ee'
=58	=58
4g'	4b' 4dd'
8B' 8d'	4gg'
8B' 8d'	.
4G' 4B'	4r
8B' 8d'	4g' 4dd'
8B' 8d'	.
=59	=59
4c'	4g' 4ee'
8e'	4g' 4cc'
8e'	.
4c'	4ee' 4ccc'
8e'	4gg' 4bb-'
8e'	.
=60	=60
4f'	4ff' 4aa'
4F	4cc 4ff 4aa
4G	4cc 4ee 4gg
4GG	4bn 4dd
=61	=61
8C 8E	4cc
8G	.
8C 8E	4.gg
8G	.
8C 8F	.
8G	8ff
8C 8F	8dd
8G	8b
=62	=62
8C 8E	4cc
8G	.
8C 8E	4.gg
8G	.
8C 8F	.
8G	8ff
8C 8F	8dd
8G	8b
=63	=63
4C 4E	4cc
4C	4ee 4gg 4ccc
4CC	4ee 4gg 4ccc
4r	4r
=:|!	=:|!
*-	*-
